Origami/16x16/apps/com.github.parnold-x.timer.svg

<svg width="16" height="16" version="1" xmlns="http://www.w3.org/2000/svg">
 <path d="m6.1289062 11.039062c-0.3749799-0.01988-0.8056375 0.151371-1.1484374 0.494141l-1.484375 1.486328c-0.54845 0.54845-0.6593869 1.321122-0.2480469 1.732422 0.41132 0.41132 1.1840218 0.300383 1.7324219-0.248047l1.484375-1.484375c0.5484499-0.54845 0.6593868-1.321122 0.2480468-1.732422-0.15424-0.15424-0.3590144-0.236117-0.5839844-0.248047zm3.703125 0c-0.22499 0.01193-0.4297243 0.093807-0.5839843 0.248047-0.41132 0.41132-0.3003831 1.184022 0.2480469 1.732422l1.4843752 1.484375c0.54845 0.54845 1.321122 0.657434 1.732422 0.246094 0.41132-0.41132 0.300383-1.182069-0.248047-1.730469l-1.484375-1.486328c-0.34277-0.34277-0.773488-0.51402-1.1484378-0.494141z" style="fill:#4f4f4f"/>
 <path d="m2.5 0.99998a2.5 2.5 0 0 0 -2.5 2.5 2.5 2.5 0 0 0 2.5 2.5 2.5 2.5 0 0 0 2.5 -2.5 2.5 2.5 0 0 0 -2.5 -2.5zm11 0a2.5 2.5 0 0 0 -2.5 2.5 2.5 2.5 0 0 0 2.5 2.5 2.5 2.5 0 0 0 2.5 -2.5 2.5 2.5 0 0 0 -2.5 -2.5z" fill="#48a040"/>
 <rect transform="matrix(0,-1,-1,0,0,0)" x="-15" y="-15" width="14" height="14" rx="7" ry="7" fill="#48a040"/>
 <rect transform="matrix(0,-1,-1,0,0,0)" x="-13" y="-13" width="10" height="10" rx="5" ry="5" style="fill:#ffffff;opacity:.7"/>
 <path d="m7.0654 8.7838 1.0891 1.8607c0.19952 0.34088 0.63845 0.45644 0.98435 0.25945s0.46392-0.6297 0.26439-0.9706l-1.0814-1.8474 2.4975-1.4223c0.17295-0.098495 0.23184-0.31507 0.13202-0.4856s-0.3194-0.22852-0.49236-0.13002l-2.9957 1.706c-0.40868 0.20074-0.56365 0.72595-0.398 1.0298z" opacity=".7"/>
</svg>

<svg xmlns="http://www.w3.org/2000/svg" width="16" height="16" version="1">
 <path style="fill:#4f4f4f" d="M 6.1289062 11.039062 C 5.7539263 11.019182 5.3232687 11.190433 4.9804688 11.533203 L 3.4960938 13.019531 C 2.9476438 13.567981 2.8367069 14.340653 3.2480469 14.751953 C 3.6593669 15.163273 4.4320687 15.052336 4.9804688 14.503906 L 6.4648438 13.019531 C 7.0132937 12.471081 7.1242306 11.698409 6.7128906 11.287109 C 6.5586506 11.132869 6.3538762 11.050992 6.1289062 11.039062 z M 9.8320312 11.039062 C 9.6070412 11.050992 9.4023069 11.132869 9.2480469 11.287109 C 8.8367269 11.698429 8.9476638 12.471131 9.4960938 13.019531 L 10.980469 14.503906 C 11.528919 15.052356 12.301591 15.16134 12.712891 14.75 C 13.124211 14.33868 13.013274 13.567931 12.464844 13.019531 L 10.980469 11.533203 C 10.637699 11.190433 10.206981 11.019183 9.8320312 11.039062 z"/>
 <path fill="#48a040" d="m2.5 0.99998a2.5 2.5 0 0 0 -2.5 2.5 2.5 2.5 0 0 0 2.5 2.5 2.5 2.5 0 0 0 2.5 -2.5 2.5 2.5 0 0 0 -2.5 -2.5zm11 0a2.5 2.5 0 0 0 -2.5 2.5 2.5 2.5 0 0 0 2.5 2.5 2.5 2.5 0 0 0 2.5 -2.5 2.5 2.5 0 0 0 -2.5 -2.5z"/>
 <rect fill="#48a040" width="14" height="14" x="-15" y="-15" rx="7" ry="7" transform="matrix(0,-1,-1,0,0,0)"/>
 <rect style="opacity:0.7;fill:#ffffff" width="10" height="10" x="-13" y="-13" rx="5" ry="5" transform="matrix(0,-1,-1,0,0,0)"/>
 <path opacity=".7" d="m7.0654 8.7838 1.0891 1.8607c0.19952 0.34088 0.63845 0.45644 0.98435 0.25945s0.46392-0.6297 0.26439-0.9706l-1.0814-1.8474 2.4975-1.4223c0.17295-0.098495 0.23184-0.31507 0.13202-0.4856s-0.3194-0.22852-0.49236-0.13002l-2.9957 1.706c-0.40868 0.20074-0.56365 0.72595-0.398 1.0298z"/>
</svg>
